packages/foundations/assets/icons/functional/images/file/paper_clip_14.svg

<svg width="14" height="14" viewBox="0 0 14 14" fill="none" xmlns="http://www.w3.org/2000/svg">
<g clip-path="url(#clip0_185_1003)">
<path fill-rule="evenodd" clip-rule="evenodd" d="M10.0485 2.68018C10.772 3.40898 10.7967 4.56903 10.1242 5.32731L6.26696 9.1895C5.99359 9.46287 5.55038 9.46287 5.27701 9.1895C5.02317 8.93566 5.00504 8.53537 5.22262 8.26061L9.05354 4.42302C9.26228 4.21428 9.2629 3.87604 9.05492 3.66654C8.86697 3.47722 8.57097 3.46042 8.36386 3.61686L4.48771 7.48584C3.80093 8.17262 3.79992 9.2858 4.48544 9.97383C5.14104 10.6318 6.18955 10.66 6.8788 10.057L10.2331 6.70829C10.5065 6.43492 10.9497 6.43492 11.223 6.70829C11.4769 6.96213 11.495 7.36242 11.2774 7.63718L7.95117 10.9701C6.71802 12.1988 4.72234 12.1951 3.49368 10.962C2.29829 9.7622 2.26586 7.84226 3.39511 6.6034L7.32339 2.67027C8.07864 1.92051 9.2987 1.92495 10.0485 2.68018Z" fill="#1A1C1F"/>
</g>
<defs>
<clipPath id="clip0_185_1003">
<rect width="14" height="14" fill="white"/>
</clipPath>
</defs>
</svg>

<svg xmlns="http://www.w3.org/2000/svg" width="14" height="14" fill="none"><g clip-path="url(#a)"><path fill="#1A1C1F" fill-rule="evenodd" d="M10.049 2.68c.723.729.748 1.889.075 2.647L6.267 9.19a.7.7 0 0 1-1.044-.928l3.83-3.838a.536.536 0 0 0 .002-.757.53.53 0 0 0-.691-.05l-3.876 3.87a1.76 1.76 0 0 0-.003 2.488 1.75 1.75 0 0 0 2.394.083l3.354-3.349a.7.7 0 0 1 1.044.93L7.951 10.97a3.15 3.15 0 0 1-4.457-.008 3.16 3.16 0 0 1-.099-4.359L7.323 2.67a1.927 1.927 0 0 1 2.726.01" clip-rule="evenodd"/></g><defs><clipPath id="a"><path fill="#fff" d="M0 0h14v14H0z"/></clipPath></defs></svg>
